static/logos/super-glyph-color.svg

<svg width="50" height="51" viewBox="0 0 50 51" fill="none" xmlns="http://www.w3.org/2000/svg">
<g clip-path="url(#clip0_1_850)">
<path d="M0.0078125 25.0306C0.0078125 6.28518 6.25622 0.0368042 25.0016 0.0368042C43.7469 0.0368042 49.9954 6.28518 49.9954 25.0306C49.9954 43.7759 43.7469 50.0243 25.0016 50.0243C6.25622 50.0243 0.0078125 43.7759 0.0078125 25.0306Z" fill="#FFC158"/>
<path fill-rule="evenodd" clip-rule="evenodd" d="M25.2913 12.2034L15.5082 27.1644C15.1978 27.639 15.5383 28.2685 16.1054 28.2685H21.1444H23.7427H25.0744L23.4129 37.3386C23.2726 38.1046 24.2858 38.5095 24.7121 37.8577L34.4952 22.8967C34.8055 22.4221 34.4651 21.7926 33.898 21.7926H27.863H26.2607H24.929L26.5904 12.7225C26.7307 11.9565 25.7175 11.5516 25.2913 12.2034Z" fill="white"/>
</g>
<defs>
<clipPath id="clip0_1_850">
<rect width="50" height="50.0612" fill="white"/>
</clipPath>
</defs>
</svg>

<svg xmlns="http://www.w3.org/2000/svg" width="62.745" height="64" fill="none" viewBox="0 0 50 51"><g clip-path="url(#a)"><path fill="#FFC158" d="M.008 25.03C.008 6.286 6.256.038 25.002.038c18.745 0 24.993 6.248 24.993 24.994 0 18.745-6.248 24.993-24.993 24.993C6.256 50.024.008 43.776.008 25.031Z"/><path fill="#fff" fill-rule="evenodd" d="m25.291 12.203-9.783 14.961a.714.714 0 0 0 .597 1.104h8.969l-1.661 9.07c-.14.767.873 1.172 1.3.52l9.782-14.961a.714.714 0 0 0-.597-1.104H24.929l1.661-9.07c.14-.767-.872-1.171-1.299-.52Z" clip-rule="evenodd"/></g><defs><clipPath id="a"><path fill="#fff" d="M0 0h50v50.061H0z"/></clipPath></defs></svg>
